Assets/Logos/Walmart.svg

<svg width="101" height="24" viewBox="0 0 101 24" fill="none" xmlns="http://www.w3.org/2000/svg">
<g clip-path="url(#clip0_6:120)">
<path d="M58.0546 12.7717C58.0546 10.4016 57.04 8.30746 53.6087 8.30746C51.8483 8.30746 50.4498 8.80922 49.6916 9.2484L50.2473 11.1499C50.9454 10.7119 52.0593 10.3513 53.1106 10.3513C54.8477 10.3488 55.1323 11.3315 55.1323 11.9633V12.1154C51.3404 12.1092 48.9433 13.4194 48.9433 16.0877C48.9433 17.718 50.1603 19.2466 52.2875 19.2466C53.5854 19.2466 54.6821 18.7228 55.3372 17.8959H55.401C55.401 17.8959 55.8329 19.703 58.2214 19.0123C58.0999 18.2554 58.0546 17.458 58.0546 16.4888V12.7717ZM55.2256 15.2743C55.2256 15.4657 55.2097 15.6644 55.1532 15.8349C54.9348 16.5649 54.1816 17.1758 53.2443 17.1758C52.4531 17.1758 51.8323 16.728 51.8323 15.7896C51.8323 14.3542 53.4173 13.9592 55.2256 13.969" fill="#ADADAD"/>
<path d="M0 5.08265C0 5.08265 2.47684 15.2158 2.87065 16.8572C3.33436 18.7759 4.16489 19.485 6.56202 19.0127L8.1102 12.7291C8.50154 11.1724 8.76772 10.056 9.02047 8.46978H9.06337C9.23881 10.0719 9.49155 11.1724 9.81172 12.734C9.81172 12.734 10.4435 15.5887 10.7711 17.0842C11.09 18.5796 11.988 19.523 14.3398 19.0127L18.025 5.08265H15.05L13.7853 11.1086C13.4503 12.8543 13.1461 14.2295 12.9093 15.8292H12.8664C12.6529 14.2467 12.3818 12.9279 12.0334 11.2177L10.7232 5.08265H7.61949L6.22095 11.0607C5.82224 12.8862 5.44931 14.3497 5.21499 15.8991H5.17452C4.93286 14.4454 4.60531 12.5942 4.25811 10.8374C4.25811 10.8374 3.42758 6.55724 3.1344 5.08265" fill="#ADADAD"/>
<path d="M26.3156 12.7717C26.3156 10.4016 25.2985 8.30746 21.8673 8.30746C20.1118 8.30746 18.7108 8.80922 17.9527 9.2484L18.5084 11.1499C19.204 10.7119 20.3167 10.3513 21.3717 10.3513C23.1088 10.3488 23.3934 11.3315 23.3934 11.9633V12.1154C19.6015 12.1092 17.2019 13.4194 17.2019 16.0877C17.2019 17.718 18.4238 19.2466 20.5412 19.2466C21.8513 19.2466 22.9383 18.7228 23.5934 17.8959H23.6596C23.6596 17.8959 24.0939 19.703 26.4799 19.0123C26.3573 18.2554 26.3156 17.458 26.3156 16.4888V12.7717ZM23.4842 15.2743C23.4842 15.4657 23.4683 15.6644 23.4143 15.8349C23.1934 16.5649 22.4402 17.1758 21.5005 17.1758C20.7141 17.1758 20.0909 16.728 20.0909 15.7896C20.0909 14.3542 21.6759 13.9592 23.4842 13.969" fill="#ADADAD"/>
<path d="M27.8593 5.08265V19.0078H30.6907V16.0549V5.08265H27.8593Z" fill="#ADADAD"/>
<path d="M66.7445 5.08265V15.3569C66.7445 16.775 67.0107 17.7638 67.5836 18.3698C68.0866 18.901 68.9097 19.247 69.8899 19.247C70.7315 19.247 71.5546 19.0851 71.9435 18.944L71.9092 16.7321C71.6184 16.7996 71.286 16.8572 70.8296 16.8572C69.863 16.8572 69.544 16.2451 69.544 14.9717V11.0386H72.0098V8.37777H69.544V5.08265" fill="#ADADAD"/>
<path d="M59.4263 8.54915V19.0123H62.3533V13.6538C62.3533 13.3655 62.3717 13.1164 62.4171 12.8858C62.6355 11.7559 63.493 11.0407 64.7283 11.0407C65.0731 11.0407 65.3074 11.0788 65.5675 11.1192V8.37618C65.3491 8.33692 65.2007 8.31606 64.932 8.31606C63.8365 8.31606 62.595 9.01164 62.0711 10.5267H61.9988V8.54915" fill="#ADADAD"/>
<path d="M32.3349 8.54915V19.0123H35.1871V12.8711C35.1871 12.5828 35.219 12.2884 35.3208 12.0221C35.5527 11.4002 36.1281 10.6801 37.0518 10.6801C38.2 10.6801 38.7423 11.6492 38.7423 13.0477V19.0123H41.5872V12.7975C41.5872 12.5264 41.6253 12.1939 41.7049 11.9534C41.9331 11.2481 42.5563 10.6801 43.4176 10.6801C44.5781 10.6801 45.14 11.6284 45.14 13.2771V19.0123H47.9823V12.8429C47.9823 9.60172 46.3336 8.31606 44.4615 8.31606C43.6384 8.31606 42.9833 8.51848 42.3944 8.88161C41.8963 9.18707 41.4596 9.61767 41.0683 10.1808H41.0253C40.5751 9.05458 39.5176 8.31606 38.1362 8.31606C36.3648 8.31606 35.56 9.21038 35.0865 9.96607H35.0436V8.54915" fill="#ADADAD"/>
<path d="M87.3283 8.07953C87.8877 8.07953 88.3587 7.78756 88.4201 7.41217L88.9746 1.13109C88.9746 0.509112 88.2422 0 87.3283 0C86.4094 0 85.6819 0.509112 85.6819 1.13109L86.2413 7.41217C86.3002 7.78756 86.7688 8.07953 87.3283 8.07953Z" fill="#ADADAD"/>
<path d="M83.9261 10.0449C84.2033 9.55424 84.1873 9.00955 83.888 8.76665L78.711 5.14644C78.1725 4.83239 77.3664 5.20655 76.9052 5.99905C76.4452 6.79032 76.5384 7.6785 77.0659 7.98642L82.7974 10.6436C83.1642 10.781 83.6439 10.5258 83.9261 10.04" fill="#ADADAD"/>
<path d="M90.7298 10.0398C91.0229 10.5256 91.5026 10.7808 91.8596 10.6507L97.5911 7.98618C98.1235 7.67213 98.2033 6.79253 97.753 6.00126C97.293 5.20876 96.4821 4.83705 95.9448 5.14497L90.7665 8.7615C90.4795 9.00808 90.4587 9.55522 90.7358 10.0447" fill="#ADADAD"/>
<path d="M87.3283 15.9254C87.8877 15.9254 88.3587 16.2173 88.4201 16.5927L88.9746 22.8738C88.9746 23.4958 88.2422 24 87.3283 24C86.4094 24 85.6819 23.4958 85.6819 22.8738L86.2413 16.5927C86.3002 16.2173 86.7688 15.9254 87.3283 15.9254Z" fill="#ADADAD"/>
<path d="M90.7298 13.9655C91.0229 13.4784 91.5026 13.2184 91.8596 13.3595L97.5911 16.0191C98.1235 16.327 98.2033 17.214 97.753 18.0065C97.293 18.7928 96.4821 19.167 95.9448 18.8591L90.7665 15.2376C90.4795 14.9935 90.4587 14.4488 90.7358 13.9655" fill="#ADADAD"/>
<path d="M83.9261 13.9601C84.2033 14.4496 84.1873 14.993 83.888 15.2384L78.711 18.8537C78.1725 19.1677 77.3664 18.7923 76.9052 18.006C76.4452 17.2147 76.5384 16.3265 77.0659 16.0186L82.7974 13.359C83.1642 13.2191 83.6439 13.4767 83.9261 13.9601Z" fill="#ADADAD"/>
<path d="M99.2683 18.3079H99.3395C99.4364 18.3079 99.4756 18.3386 99.4867 18.4159C99.5075 18.5017 99.5186 18.5594 99.5394 18.5839H99.7235C99.7075 18.5655 99.6866 18.5189 99.6756 18.4109C99.6547 18.3177 99.6069 18.265 99.5394 18.2466V18.2294C99.6326 18.2085 99.6866 18.146 99.6866 18.0687C99.6866 17.9988 99.6547 17.9485 99.6228 17.9166C99.5615 17.8871 99.5027 17.8638 99.3726 17.8638C99.2573 17.8638 99.1726 17.8736 99.1051 17.8896V18.5839H99.2683V18.3079ZM99.2732 17.9914L99.3567 17.9803C99.4548 17.9803 99.5075 18.0257 99.5075 18.0895C99.5075 18.1607 99.4364 18.1938 99.3456 18.1938H99.2732V17.9914ZM99.3775 17.5203C98.9752 17.5203 98.6562 17.8344 98.6562 18.2196C98.6562 18.6146 98.9752 18.9286 99.3775 18.9286C99.7848 18.9286 100.094 18.6146 100.094 18.2196C100.094 17.8344 99.7848 17.5203 99.3775 17.5203ZM99.3775 17.6614C99.6866 17.6614 99.9161 17.9116 99.9161 18.2196C99.9161 18.5299 99.6866 18.7876 99.3775 18.7827C99.0684 18.7827 98.834 18.5299 98.834 18.2196C98.834 17.9116 99.0684 17.6614 99.3726 17.6614" fill="#ADADAD"/>
</g>
<defs>
<clipPath id="clip0_6:120">
<rect width="100.094" height="24" fill="white"/>
</clipPath>
</defs>
</svg>

<svg width="101" height="24" fill="none" xmlns="http://www.w3.org/2000/svg"><g clip-path="url(#clip0_6:120)" fill="#ADADAD"><path d="M58.055 12.772c0-2.37-1.015-4.465-4.446-4.465-1.76 0-3.16.502-3.917.941l.555 1.902c.698-.438 1.812-.799 2.864-.799 1.737-.002 2.021.98 2.021 1.612v.152c-3.792-.006-6.189 1.304-6.189 3.973 0 1.63 1.217 3.159 3.345 3.159 1.297 0 2.394-.524 3.05-1.351h.063s.432 1.807 2.82 1.116c-.121-.757-.166-1.554-.166-2.523v-3.717zm-2.83 2.502c0 .192-.015.39-.072.56-.218.73-.971 1.342-1.909 1.342-.79 0-1.412-.448-1.412-1.386 0-1.436 1.585-1.83 3.394-1.821M0 5.083s2.477 10.133 2.87 11.774c.464 1.919 1.295 2.628 3.692 2.156l1.548-6.284c.392-1.557.658-2.673.91-4.26h.043c.176 1.603.429 2.703.749 4.265 0 0 .632 2.855.96 4.35.318 1.496 1.216 2.439 3.568 1.929l3.685-13.93H15.05l-1.265 6.026c-.335 1.745-.639 3.12-.876 4.72h-.043c-.213-1.582-.484-2.901-.833-4.611l-1.31-6.135H7.62L6.221 11.06c-.399 1.825-.772 3.289-1.006 4.838h-.04c-.242-1.454-.57-3.305-.917-5.062 0 0-.83-4.28-1.124-5.754M26.316 12.772c0-2.37-1.017-4.465-4.449-4.465-1.755 0-3.156.502-3.914.941l.555 1.902c.696-.438 1.809-.799 2.864-.799 1.737-.002 2.021.98 2.021 1.612v.152c-3.791-.006-6.191 1.304-6.191 3.973 0 1.63 1.222 3.159 3.34 3.159 1.31 0 2.396-.524 3.051-1.351h.067s.434 1.807 2.82 1.116c-.123-.757-.164-1.554-.164-2.523v-3.717zm-2.832 2.502c0 .192-.016.39-.07.56-.22.73-.974 1.342-1.914 1.342-.786 0-1.41-.448-1.41-1.386 0-1.436 1.586-1.83 3.394-1.821M27.86 5.083v13.925h2.83V5.083h-2.83zM66.745 5.083v10.274c0 1.418.266 2.407.839 3.013.503.531 1.326.877 2.306.877.841 0 1.665-.162 2.053-.303l-.034-2.212c-.29.068-.623.125-1.08.125-.966 0-1.285-.612-1.285-1.885v-3.933h2.466V8.378h-2.466V5.083M59.426 8.55v10.462h2.927v-5.358c0-.288.019-.538.064-.768.218-1.13 1.076-1.845 2.311-1.845.345 0 .58.038.84.078V8.376a3.098 3.098 0 00-.636-.06c-1.096 0-2.337.696-2.86 2.21h-.073V8.55M32.335 8.55v10.462h2.852v-6.14c0-.29.032-.584.134-.85.232-.622.807-1.342 1.73-1.342 1.149 0 1.691.97 1.691 2.368v5.964h2.845v-6.215c0-.27.038-.603.118-.844.228-.705.851-1.273 1.713-1.273 1.16 0 1.722.948 1.722 2.597v5.735h2.842v-6.17c0-3.24-1.648-4.526-3.52-4.526-.824 0-1.479.202-2.068.566-.498.305-.934.736-1.326 1.299h-.043c-.45-1.126-1.507-1.865-2.889-1.865-1.771 0-2.576.894-3.05 1.65h-.042V8.55M87.328 8.08c.56 0 1.03-.292 1.092-.668l.555-6.28C88.975.508 88.242 0 87.328 0c-.919 0-1.646.51-1.646 1.131l.56 6.281c.058.376.527.668 1.086.668zM83.926 10.045c.277-.49.261-1.035-.038-1.278l-5.177-3.62c-.538-.315-1.345.06-1.806.852-.46.791-.367 1.68.16 1.987l5.732 2.658c.367.137.847-.118 1.13-.604M90.73 10.04c.293.486.773.74 1.13.61l5.731-2.664c.533-.314.612-1.193.162-1.985-.46-.792-1.27-1.164-1.808-.856l-5.178 3.617c-.287.246-.308.793-.031 1.283M87.328 15.925c.56 0 1.03.292 1.092.668l.555 6.28c0 .623-.733 1.127-1.647 1.127-.919 0-1.646-.504-1.646-1.126l.56-6.281c.058-.376.527-.668 1.086-.668zM90.73 13.966c.293-.488.773-.748 1.13-.606l5.731 2.66c.533.307.612 1.194.162 1.986-.46.787-1.27 1.161-1.808.853l-5.178-3.621c-.287-.245-.308-.79-.031-1.272M83.926 13.96c.277.49.261 1.033-.038 1.278l-5.177 3.616c-.538.314-1.345-.062-1.806-.848-.46-.791-.367-1.68.16-1.987l5.732-2.66c.367-.14.847.118 1.13.601zM99.268 18.308h.072c.096 0 .136.03.147.108.02.086.032.143.052.168h.184c-.016-.018-.036-.065-.047-.173-.021-.093-.07-.146-.137-.164v-.018c.094-.02.148-.083.148-.16 0-.07-.032-.12-.064-.152a.498.498 0 00-.25-.053c-.116 0-.2.01-.268.026v.694h.163v-.276zm.005-.317l.084-.01c.098 0 .15.045.15.108 0 .072-.07.105-.161.105h-.073v-.203zm.105-.47a.709.709 0 00-.722.699.71.71 0 00.721.709.703.703 0 100-1.409zm0 .14c.309 0 .538.25.538.559 0 .31-.23.568-.538.563a.548.548 0 01-.544-.563c0-.308.234-.559.539-.559"/></g><defs><clipPath id="clip0_6:120"><path fill="#fff" d="M0 0h100.094v24H0z"/></clipPath></defs></svg>
